lib/healthicons/icons/solid/symbols/paved_road.svg

<svg fill="none" height="48" viewBox="0 0 48 48" width="48" xmlns="http://www.w3.org/2000/svg"><path clip-rule="evenodd" d="m6.05569 40.0011c-.06133 1.1029.83989 1.999 1.94446 1.999h13.99995c1.1046.0001 1.9886-.8981 2.111-1.9959.1873-1.6785.6103-3.3258 1.2592-4.8924.9046-2.1838 2.2305-4.1681 3.9019-5.8396 1.6715-1.6714 3.6558-2.9973 5.8397-3.9019 1.5665-.6489 3.2138-1.0719 4.8924-1.2592 1.0977-.1224 1.9959-1.0064 1.9959-2.1109v-14.00005c0-1.10457-.8962-2.00579-1.999-1.94446-4.0443.22491-8.0266 1.13106-11.7776 2.68479-4.3678 1.80912-8.3364 4.46092-11.6793 7.80382s-5.9946 7.3115-7.80381 11.6792c-1.55373 3.7511-2.45989 7.7334-2.6848 11.7776zm30.95701-24.3631c.7296-.1615 1.4678-.2932 2.2129-.3941l-.0671-.4955-.1342-.9909-.0671-.4955c-.8003.1084-1.5932.2498-2.3768.4233l.108.4881.2162.9764zm-8.2985 3.3573c1.2778-.7851 2.6189-1.4625 4.0092-2.025l-.1876-.4635-.375-.927-.1875-.4635c-1.4933.6041-2.9337 1.3317-4.3061 2.175l.2617.426.5235.852zm-5.2485 4.2087c.5235-.5398 1.0675-1.0558 1.6305-1.5472l-.3287-.3767-.6576-.7534-.3287-.3767c-.6047.5277-1.1891 1.082-1.7513 1.6617-.5622.5798-1.0981 1.181-1.607 1.8016l.3866.317.7734.6341.3866.317c.4738-.5779.9728-1.1376 1.4962-1.6774zm-5.9456 9.4452c.5194-1.4069 1.1551-2.7682 1.9006-4.0696l-.4339-.2485-.8677-.4971-.4339-.2485c-.8006 1.3978-1.4835 2.8599-2.0413 4.3711l.469.1731.9382.3463zm-1.5254 6.5523c.078-.7478.1868-1.4898.3258-2.224l-.4913-.093-.9825-.186-.4913-.0929c-.1493.7886-.2662 1.5854-.3499 2.3887l.4973.0518.9946.1036z" fill="#333" fill-rule="evenodd"/></svg>

<svg width="48" height="48" viewBox="0 0 48 48" fill="none" xmlns="http://www.w3.org/2000/svg">
<path fill-rule="evenodd" clip-rule="evenodd" d="M6.05569 40.0011C5.99436 41.104 6.89558 42.0001 8.00015 42.0001H22.0001C23.1047 42.0002 23.9887 41.102 24.1111 40.0042C24.2984 38.3257 24.7214 36.6784 25.3703 35.1118C26.2749 32.928 27.6008 30.9437 29.2722 29.2722C30.9437 27.6008 32.928 26.2749 35.1119 25.3703C36.6784 24.7214 38.3257 24.2984 40.0043 24.1111C41.102 23.9887 42.0002 23.1047 42.0002 22.0002L42.0002 8.00015C42.0002 6.89558 41.104 5.99436 40.0012 6.05569C35.9569 6.2806 31.9746 7.18675 28.2236 8.74048C23.8558 10.5496 19.8872 13.2014 16.5443 16.5443C13.2014 19.8872 10.5497 23.8558 8.74049 28.2235C7.18676 31.9746 6.2806 35.9569 6.05569 40.0011ZM37.0127 15.638C37.7423 15.4765 38.4805 15.3448 39.2256 15.2439L38.9572 13.262C38.1569 13.3704 37.364 13.5118 36.5804 13.6853L37.0127 15.638ZM28.7142 18.9953C29.992 18.2102 31.3331 17.5328 32.7234 16.9703L31.9733 15.1163C30.48 15.7204 29.0396 16.448 27.6672 17.2913L28.7142 18.9953ZM23.4657 23.204C23.9892 22.6642 24.5332 22.1482 25.0962 21.6568L23.7812 20.15C23.1765 20.6777 22.5921 21.232 22.0299 21.8117C21.4677 22.3915 20.9318 22.9927 20.4229 23.6133L21.9695 24.8814C22.4433 24.3035 22.9423 23.7438 23.4657 23.204ZM17.5201 32.6492C18.0395 31.2423 18.6752 29.881 19.4207 28.5796L17.6852 27.5855C16.8846 28.9833 16.2017 30.4454 15.6439 31.9566L17.5201 32.6492ZM15.9947 39.2015C16.0727 38.4537 16.1815 37.7117 16.3205 36.9775L14.3554 36.6056C14.2061 37.3942 14.0892 38.191 14.0055 38.9943L15.9947 39.2015Z" fill="#333333"/>
</svg>
